X: 1566
T: Jack Canny's Reel
B: australian traditional tunes wiki
M:C
L:1/8
R: Reel
Q: 1/4=100
K:G
V:1 
|:"Am"e2a2ef ed|e2a2e3d|c2d2"D"e2f2|"C"g2ag "Am"e2d2|
"Am"e2a2ef ed|e2a2e3d|c2A2 "Em"BA G2|"Am"A4-A4:|
|:"Am"AB AG E2G2|c2d2e3d|c2A2 "Em"B2G2|"Am"AB AG E2G2|
"Am"AB AG E2A2|c2d2e3d|c2A2"Em"BA G2|"Am"A4-A4:|
% abcbook-tune_id 6342d53a067b1b5a87612ca3


% abcbook-boost 0
% abcbook-tablature 
% abcbook-transpose 
% abcbook-lastupdated 1665324371365
% abcbook-soundfonts 
% abcbook-repeats 1
% NFF Book 2008

